icons/branch-check.svg

<svg xmlns="http://www.w3.org/2000/svg" viewBox="0 0 24 24" fill="currentColor">
  <path d="M4 2.5625c.41421 0 .75.33579.75.75v3.55005h2.53694C7.50285 5.56093 8.63895 4.5625 10 4.5625h8c1.5142 0 2.75 1.23579 2.75 2.75v1c0 1.51421-1.2358 2.75-2.75 2.75h-8c-1.4975 0-2.72268-1.20865-2.74955-2.69995H4.75v5.44995c0 .6858.56421 1.25 1.25 1.25h1.26131c.12707-1.3979 1.30873-2.5 2.73869-2.5h8c1.5142 0 2.75 1.2358 2.75 2.75 0 .4142-.3358.75-.75.75s-.75-.3358-.75-.75c0-.6858-.5642-1.25-1.25-1.25h-8c-.68579 0-1.25.5642-1.25 1.25v1c0 .6858.56421 1.25 1.25 1.25.4142 0 .75.3358.75.75s-.3358.75-.75.75c-1.42996 0-2.61162-1.1021-2.73869-2.5H6c-1.51421 0-2.75-1.2358-2.75-2.75v-10.5c0-.41421.33579-.75.75-.75Zm4.75 5.05005v.69995c0 .68579.56421 1.25 1.25 1.25h8c.6858 0 1.25-.56421 1.25-1.25v-1c0-.68579-.5642-1.25-1.25-1.25h-8c-.68579 0-1.25.56421-1.25 1.25v.30005Zm9.3883 9.27795c.2884.2974.2811.7722-.0163 1.0605l-3.2057 3.1086c-.0695.105-.16.1889-.2562.248-.1773.1091-.3567.13-.4727.13-.2292 0-.506-.0828-.7178-.2947l-.0377-.0377-1.232-1.6426c-.2485-.3314-.1814-.8015.15-1.05.3314-.2485.8015-.1814 1.05.15l.8155 1.0873 2.8624-2.7757c.2974-.2884.7722-.2811 1.0605.0163Z"/>
</svg>

<svg width="24" height="24" viewBox="0 0 24 24" fill="none" xmlns="http://www.w3.org/2000/svg">
<path fill-rule="evenodd" clip-rule="evenodd" d="M4 2.5625C4.41421 2.5625 4.75 2.89829 4.75 3.3125V6.86255H7.28694C7.50285 5.56093 8.63895 4.5625 10 4.5625H18C19.5142 4.5625 20.75 5.79829 20.75 7.3125V8.3125C20.75 9.82671 19.5142 11.0625 18 11.0625H10C8.5025 11.0625 7.27732 9.85385 7.25045 8.36255H4.75V13.8125C4.75 14.4983 5.31421 15.0625 6 15.0625H7.26131C7.38838 13.6646 8.57004 12.5625 10 12.5625H18C19.5142 12.5625 20.75 13.7983 20.75 15.3125C20.75 15.7267 20.4142 16.0625 20 16.0625C19.5858 16.0625 19.25 15.7267 19.25 15.3125C19.25 14.6267 18.6858 14.0625 18 14.0625H10C9.31421 14.0625 8.75 14.6267 8.75 15.3125V15.8125V16.3125C8.75 16.9983 9.31421 17.5625 10 17.5625C10.4142 17.5625 10.75 17.8983 10.75 18.3125C10.75 18.7267 10.4142 19.0625 10 19.0625C8.57004 19.0625 7.38838 17.9604 7.26131 16.5625H6C4.48579 16.5625 3.25 15.3267 3.25 13.8125V7.61255V3.3125C3.25 2.89829 3.58579 2.5625 4 2.5625ZM8.75 7.61255V8.3125C8.75 8.99829 9.31421 9.5625 10 9.5625H18C18.6858 9.5625 19.25 8.99829 19.25 8.3125V7.3125C19.25 6.62671 18.6858 6.0625 18 6.0625H10C9.31421 6.0625 8.75 6.62671 8.75 7.3125V7.61255ZM18.1383 16.8905C18.4267 17.1879 18.4194 17.6627 18.122 17.951L14.9163 21.0596C14.8468 21.1646 14.7563 21.2485 14.6601 21.3076C14.4828 21.4167 14.3034 21.4376 14.1874 21.4376C13.9582 21.4376 13.6814 21.3548 13.4696 21.1429L13.4319 21.1052L12.1999 19.4626C11.9514 19.1312 12.0185 18.6611 12.3499 18.4126C12.6813 18.1641 13.1514 18.2312 13.3999 18.5626L14.2154 19.6499L17.0778 16.8742C17.3752 16.5858 17.85 16.5931 18.1383 16.8905Z" fill="black"/>
</svg>
